Newaita-dark/actions/24/filename-title-amarok.svg

<svg height="24" viewBox="0 0 24 24" width="24" xmlns="http://www.w3.org/2000/svg"><g fill="#e0e0e0"><path d="m4.960938 8.125h15.878906v.992188h-15.878906zm0 0"/><path d="m5.953125 2.171875c-1.097656 0-1.984375.886719-1.984375 1.984375v15.875c0 1.101562.886719 1.988281 1.984375 1.988281h13.882813c1.097656 0 1.984374-.886719 1.984374-1.988281v-15.875c0-1.097656-.886718-1.984375-1.984374-1.984375zm.992187 1.984375h11.898438c.550781 0 .992188.441406.992188.992188v13.890624c0 .550782-.441407.992188-.992188.992188h-11.898438c-.550781 0-.992187-.441406-.992187-.992188v-13.890624c0-.550782.441406-.992188.992187-.992188zm0 0"/><path d="m2.480469 7.132812h1.984375c.273437 0 .496094.222657.496094.496094v.992188c0 .273437-.222657.496094-.496094.496094h-1.984375c-.273438 0-.496094-.222657-.496094-.496094v-.992188c0-.273437.222656-.496094.496094-.496094zm0 0"/><path d="m2.480469 15.070312h1.984375c.273437 0 .496094.222657.496094.496094v.992188c0 .277344-.222657.496094-.496094.496094h-1.984375c-.273438 0-.496094-.21875-.496094-.496094v-.992188c0-.273437.222656-.496094.496094-.496094zm0 0"/></g></svg>

<svg xmlns="http://www.w3.org/2000/svg" xmlns:xlink="http://www.w3.org/1999/xlink" width="24px" height="24px" viewBox="0 0 24 24" version="1.1">
<g id="surface1">
     <defs>
  <style id="current-color-scheme" type="text/css">
   .ColorScheme-Text { color:#eeeeee; } .ColorScheme-Highlight { color:#424242; }
  </style>
 </defs>
<path style="fill:currentColor" class="ColorScheme-Text" d="M 4.960938 8.125 L 20.839844 8.125 L 20.839844 9.117188 L 4.960938 9.117188 Z M 4.960938 8.125 "/>
     <defs>
  <style id="current-color-scheme" type="text/css">
   .ColorScheme-Text { color:#eeeeee; } .ColorScheme-Highlight { color:#424242; }
  </style>
 </defs>
<path style="fill:currentColor" class="ColorScheme-Text" d="M 5.953125 2.171875 C 4.855469 2.171875 3.96875 3.058594 3.96875 4.15625 L 3.96875 20.03125 C 3.96875 21.132812 4.855469 22.019531 5.953125 22.019531 L 19.835938 22.019531 C 20.933594 22.019531 21.820312 21.132812 21.820312 20.03125 L 21.820312 4.15625 C 21.820312 3.058594 20.933594 2.171875 19.835938 2.171875 Z M 6.945312 4.15625 L 18.84375 4.15625 C 19.394531 4.15625 19.835938 4.597656 19.835938 5.148438 L 19.835938 19.039062 C 19.835938 19.589844 19.394531 20.03125 18.84375 20.03125 L 6.945312 20.03125 C 6.394531 20.03125 5.953125 19.589844 5.953125 19.039062 L 5.953125 5.148438 C 5.953125 4.597656 6.394531 4.15625 6.945312 4.15625 Z M 6.945312 4.15625 "/>
     <defs>
  <style id="current-color-scheme" type="text/css">
   .ColorScheme-Text { color:#eeeeee; } .ColorScheme-Highlight { color:#424242; }
  </style>
 </defs>
<path style="fill:currentColor" class="ColorScheme-Text" d="M 2.480469 7.132812 L 4.464844 7.132812 C 4.738281 7.132812 4.960938 7.355469 4.960938 7.628906 L 4.960938 8.621094 C 4.960938 8.894531 4.738281 9.117188 4.464844 9.117188 L 2.480469 9.117188 C 2.207031 9.117188 1.984375 8.894531 1.984375 8.621094 L 1.984375 7.628906 C 1.984375 7.355469 2.207031 7.132812 2.480469 7.132812 Z M 2.480469 7.132812 "/>
     <defs>
  <style id="current-color-scheme" type="text/css">
   .ColorScheme-Text { color:#eeeeee; } .ColorScheme-Highlight { color:#424242; }
  </style>
 </defs>
<path style="fill:currentColor" class="ColorScheme-Text" d="M 2.480469 15.070312 L 4.464844 15.070312 C 4.738281 15.070312 4.960938 15.292969 4.960938 15.566406 L 4.960938 16.558594 C 4.960938 16.835938 4.738281 17.054688 4.464844 17.054688 L 2.480469 17.054688 C 2.207031 17.054688 1.984375 16.835938 1.984375 16.558594 L 1.984375 15.566406 C 1.984375 15.292969 2.207031 15.070312 2.480469 15.070312 Z M 2.480469 15.070312 "/>
</g>
</svg>
